X:22
T:Lichtmann 22
C:G. P. Telemann
M:2/2
L:1/8
Q:"Vivace" 1/2=96
K:D
!f!D"_spiritoso"A,|D2D2 (DE)FG|A2A2A2FG|A2 GF G2 FE|(FG)FE D2 FD|
C2FDE2FD|E2A,2A,2CA,|B,2CA,B,2CA,|B,2E2E2B,2|
C2 DE B,2CD|C2 DE B,2 CD|(CB,)A,B,B,3A,|A,2EE CCEE|
A2EE CCEE|A,6AE||A2A2(AB)cd|e2e2e2dc|f2ede2dc|
(de)dcB2BF|G2E2E2GE|F2B,2B,2AF|(GF)EF F3E|E6 B,C|
D2(DE/F/E2)D2|D2CB, (CD)EF|G2(GA/B/A2)G2|G2FEF2AF|G2E2E2GE|
F2D2D2FD|(EG)FEE3D|D2AA FFAA|d2dd AAFF|D6|]

